X:177
T:Miss Baker's Hornpipe
O:No 177 William Clarke of Feltwell
M:4/4
L:1/8
K:F
cB|A2F4GF|EGB2B2cB|Acde fcdB|A2F4::(3cde|fcAc fagf|gece gbag|afge fdgf|e2c4fc|(3def (3ABcB2ba|gfed dcBc|(3Bcd (3EFG FdcB|A2F4:|

